X:1
T: Lady Lepley
I:
C: W-27
C: Ed Pearlman  10/84
M: 3/4
L: 1/4
Z:
R: waltz
K: C
G|: "C"c2G| "G"d2G| "C"e>dc| "G"Bce/d/| "Am"c>BA| "Em"GAc| "F"A3-| "G"A2 G|
"C"c2G| "G/B"d2G| "Am"e>de| "C/E"ga_b| "F"a>gf| "Em"e/f/gG| "F"A3-| "Em/G"Aeg|
"F"f/g/a2| "C"e/f/g2| "G"deg/f/| "C"e>dc| "F"f>af| "C"e/f/gG| "Dm"e>dc| "G"A2G|
"C"c2G| "G/B"d2G| "Am"e>de| "C/E"ga_b| "F"a>gf| "C"e>dc|1\
"F"A>GF-| "G"F2 G:|2 "F"A/G/F2-| "G"F2 E/F/|] "C - go out on"H[C3G3]|]
%
